X: 28116
T: Mrs Anne MacDermott Roe
R: polka
M: 2/4
K: Dminor
"Dm"D2DE F2ED|"Am"F2A2 "Dm"AGFE|"Bb"F2EF "C/G"GFED|"C"C2A,2 C2DE|
"Dm"F2A2 "C"G2c2|"Dm"A2d2 "Bb"dcBA|"Dm"F2ED "Bb"FEDC|"C"A,2D2 "Dm"D4||
"Dm"A2d2 "C"d2A2|"Bb"dcde "Dm"d2A2|"Dm"A2A=B "Am"c2G2|"Am"cBcd "C"c2G2|
"Dm"AGAB "Bb"c2BA|"C"G2F2 E2C2|"Dm"AGFE "C"GFED|"C"C2C2 "Am"A,4|
"Dm"F2A2 FGA=B|"Am"c4c4|"Dm"f2ef gfed|"Bb"Tc4"Dm"d4|
"Bb"cdcB "Dm"A2c2|"C"G2c2 "Bb"F2c2|"Am"E2c2 "C"GFEG|"Bb"F2ED "Dm"D4||

